src/components/Icon/utils/svgsOptimized/person.svg

<svg width="24" height="24" viewBox="0 0 24 24"  xmlns="http://www.w3.org/2000/svg">
<path d="M12 3.75C9.65279 3.75 7.75 5.65279 7.75 8C7.75 10.3472 9.65279 12.25 12 12.25C14.3472 12.25 16.25 10.3472 16.25 8C16.25 5.65279 14.3472 3.75 12 3.75Z" />
<path d="M12 13.75C11.1598 13.75 10.3361 13.8018 9.55956 13.9068L9.54001 13.9097C7.8263 14.1874 6.29726 14.7489 5.17545 15.5293C4.06361 16.3028 3.25 17.3721 3.25 18.66C3.25 19.6504 4.16238 20.25 5 20.25H19C19.8376 20.25 20.75 19.6504 20.75 18.66C20.75 17.3721 19.9364 16.3028 18.8245 15.5293C17.7027 14.7489 16.1737 14.1874 14.46 13.9097L14.4404 13.9068C13.6639 13.8018 12.8402 13.75 12 13.75Z" />
</svg>

<?xml version="1.0" encoding="utf-8"?><svg width="24" height="24" xmlns="http://www.w3.org/2000/svg" viewBox="0 0 24 24"><path d="M12 3.75a4.25 4.25 0 1 0 0 8.5 4.25 4.25 0 0 0 0-8.5Zm0 10c-.84 0-1.664.052-2.44.157l-.02.003c-1.714.277-3.243.839-4.365 1.62-1.111.773-1.925 1.842-1.925 3.13 0 .99.912 1.59 1.75 1.59h14c.838 0 1.75-.6 1.75-1.59 0-1.288-.814-2.357-1.925-3.13-1.122-.781-2.651-1.343-4.365-1.62l-.02-.003c-.776-.105-1.6-.157-2.44-.157Z"/></svg>
